brandFactory_export/2.Regular/Paragüas _2Regular.svg

<?xml version="1.0" encoding="UTF-8"?>
<svg width="24px" height="24px" viewBox="0 0 24 24" version="1.1" xmlns="http://www.w3.org/2000/svg" xmlns:xlink="http://www.w3.org/1999/xlink">
    <title>2.Regular/Paragüas _2Regular</title>
    <g id="Symbols" stroke="none" stroke-width="1" fill="none" fill-rule="evenodd">
        <g id="2.Regular/Paragüas-_2Regular" fill="#5CB615" fill-rule="nonzero">
            <path d="M22.0638655,10.9613445 C21.9731092,11.0655462 21.8588235,11.0890756 21.7815126,11.0890756 L19.6067227,11.0823529 C18.8840336,7.03193277 17.0453782,4.6487395 15.3478992,3.28067227 C17.1394958,3.71428571 18.6151261,4.49747899 19.7378151,5.64369748 C20.9714286,6.90420168 21.7781513,8.60168067 22.1344538,10.692437 C22.1478992,10.7865546 22.1176471,10.8941176 22.0638655,10.9613445 L22.0638655,10.9613445 Z M12.6554622,3.31428571 C14.205042,4.03361345 17.1092437,6.03361345 18.097479,11.0823529 L12.6554622,11.0689076 L12.6554622,3.31428571 Z M5.52268908,11.0487395 C6.48067227,6.17142857 9.61008403,4.06386555 11.1663866,3.30420168 L11.1663866,11.0655462 L5.52268908,11.0487395 Z M1.6605042,10.9815126 C1.64705882,10.9714286 1.61344538,10.9478992 1.57647059,10.907563 C1.50588235,10.8201681 1.47563025,10.7193277 1.49243697,10.6252101 C1.86218487,8.54117647 2.68235294,6.85042017 3.93277311,5.6 C5.10588235,4.41680672 6.65882353,3.62352941 8.5512605,3.21680672 C6.75966387,4.60504202 4.73277311,7.02184874 4.01680672,11.0420168 L1.86218487,11.0352941 C1.79495798,11.0352941 1.71428571,11.0151261 1.6605042,10.9815126 Z M23.5966387,10.4436975 C23.189916,8.06386555 22.2487395,6.10420168 20.8033613,4.62857143 C18.8773109,2.66218487 16.1411765,1.6 12.6554622,1.44537815 L12.6554622,0.732773109 C12.6554622,0.329411765 12.3226891,0 11.912605,0 C11.502521,0 11.1697479,0.329411765 11.1697479,0.732773109 L11.1697479,1.44537815 C7.62689076,1.54957983 4.8302521,2.59831933 2.87394958,4.57478992 C1.41176471,6.04033613 0.453781513,7.98991597 0.0302521008,10.3697479 C-0.0605042017,10.8806723 0.0806722689,11.4117647 0.443697479,11.8554622 C0.58487395,12.0134454 0.72605042,12.1344538 0.877310924,12.2252101 C1.16302521,12.4 1.50588235,12.5008403 1.85546218,12.5042017 L11.1697479,12.5310924 L11.1697479,20.9478992 C11.1697479,20.9647059 11.1697479,20.9815126 11.1731092,20.9983193 C11.2033613,22.4537815 12.4168067,23.6268908 13.8991597,23.6268908 C15.4016807,23.6268908 16.6252101,22.4201681 16.6252101,20.9378151 C16.6252101,20.5344538 16.292437,20.205042 15.8823529,20.205042 C15.4722689,20.205042 15.1394958,20.5344538 15.1394958,20.9378151 C15.1394958,21.610084 14.5815126,22.1579832 13.8991597,22.1579832 C13.2168067,22.1579832 12.6588235,21.610084 12.6588235,20.9378151 L12.6588235,12.5344538 L21.7848739,12.5579832 C22.3361345,12.5546218 22.8571429,12.3193277 23.2201681,11.8890756 C23.5495798,11.4722689 23.687395,10.9445378 23.5966387,10.4436975 L23.5966387,10.4436975 Z" id="Paragüas-_2Regular"></path>
        </g>
    </g>
</svg>

<svg width="24" height="24" viewBox="0 0 24 24" xmlns="http://www.w3.org/2000/svg"><path d="M22.064 10.961a.369.369 0 01-.282.128l-2.175-.007c-.723-4.05-2.562-6.433-4.26-7.801 1.792.433 3.268 1.216 4.39 2.363 1.234 1.26 2.041 2.958 2.397 5.048a.372.372 0 01-.07.27zm-9.409-7.647c1.55.72 4.454 2.72 5.442 7.768l-5.442-.013V3.314zM5.523 11.05C6.48 6.17 9.61 4.064 11.166 3.304v7.762l-5.643-.017zm-3.862-.067c-.014-.01-.048-.034-.085-.074a.353.353 0 01-.084-.283c.37-2.084 1.19-3.775 2.44-5.025 1.174-1.183 2.727-1.976 4.62-2.383-1.792 1.388-3.82 3.805-4.535 7.825l-2.155-.007a.41.41 0 01-.201-.053zm21.936-.538c-.407-2.38-1.348-4.34-2.794-5.815-1.926-1.967-4.662-3.029-8.148-3.184V.733A.739.739 0 0011.913 0c-.41 0-.743.33-.743.733v.712c-3.543.105-6.34 1.153-8.296 3.13C1.412 6.04.454 7.99.03 10.37c-.09.51.05 1.042.414 1.485.14.158.282.28.433.37.286.175.629.276.978.28l9.315.026v8.417c0 .017 0 .034.003.05.03 1.456 1.244 2.629 2.726 2.629 1.503 0 2.726-1.207 2.726-2.69a.739.739 0 00-.743-.732c-.41 0-.743.33-.743.733 0 .672-.557 1.22-1.24 1.22-.682 0-1.24-.548-1.24-1.22v-8.404l9.126.024a1.88 1.88 0 001.435-.669c.33-.417.467-.944.377-1.445z" fill="#5CB615" fill-rule="nonzero"/></svg>
